X:96
T:L'academi
O:France
A:Provence
C:Trad.
R:Marche
Z:Transcrit par Michel Bellon 2004-02-18
S:Carnet du tambourinaire Ginas (1924)
Z:Transcrit et/ou corrig par Michel BELLON - 2005-03-04
Z:Pour toute observation mailto:galouvielle@free.fr
M:2/4
L:1/8
K:F
V:Galoubet
A2c2 | F3z | A2c2 | B3z | G>A B>c | d4 |1 e>d c>B | A3z :|2 e>c d>e | f3z |:
A>A A>A | c>c c>c | (3 edc (3edc | f2c2 | A>A A>A |c>c c>c | (3edc (3ede | f3z :|
A4- | A2d2 | B2B>B | B4 | e4- | e2e2 | f3(e/d/) | c4 | A4- | A2d2 | B2B>B | B4 | e2>c2 | d2e2 | f2 z2 |]
V:Tambourin clef=perc stafflines=1 staffscale=0.6
K:none
B2B2 | B2 z/B/B/B/ | B2B2 | B2 z/B/B/B/ | B>B B>B | B2B2 | B>B B>B | B2B2 | B>B B>B | B2B2 |
B>B B>B | B>B B>B | B2B2 | B>B B>B | B>B B>B | B>B B>B | B2 B2 | B2z2 |
B2B2 | B2B2 | B2B>B | B2B2 | B2B2 | B2B2 | B2B2 | B2B2 | B2B2 | B2B2 | B2B>B | B2B2 | B2B2 | B2B2 | B2B/B/B/B/ |]
%%footer $D   Galouvielle-MBe 2008 \nMarche (France)
